assets/post/images/tree2.svg

<svg xmlns="http://www.w3.org/2000/svg" width="2182" height="1062" overflow="hidden"><defs><clipPath id="a"><path d="M241 1248h2182v1062H241z"/></clipPath></defs><g clip-path="url(#a)" transform="translate(-241 -1248)"><path fill="#d74514" fill-rule="evenodd" stroke="#d74514" stroke-miterlimit="8" stroke-width="9.167" d="M495.5 1331.5c0-43.63 35.146-79 78.5-79s78.5 35.37 78.5 79-35.146 79-78.5 79-78.5-35.37-78.5-79Z"/><text fill="#fff" font-family="Courier New,Courier New_MSFontService,sans-serif" font-size="83" font-weight="700" transform="translate(548.948 1355)">x</text><path fill="#fdefe8" fill-rule="evenodd" stroke="#d74514" stroke-miterlimit="8" stroke-width="9.167" d="M245.5 1581.5c0-43.63 35.146-79 78.5-79s78.5 35.37 78.5 79-35.146 79-78.5 79-78.5-35.37-78.5-79Z"/><text fill="#d74514" font-family="Courier New,Courier New_MSFontService,sans-serif" font-size="83" font-weight="700" transform="translate(298.904 1605)">A</text><path fill="#fdefe8" fill-rule="evenodd" stroke="#d74514" stroke-miterlimit="8" stroke-width="9.167" d="M602.5 1885c0-43.35 35.37-78.5 79-78.5s79 35.15 79 78.5-35.37 78.5-79 78.5-79-35.15-79-78.5Z"/><text fill="#d74514" font-family="Courier New,Courier New_MSFontService,sans-serif" font-size="83" font-weight="700" transform="translate(656.706 1908)">B</text><path fill="#d74514" fill-rule="evenodd" stroke="#d74514" stroke-miterlimit="8" stroke-width="9.167" d="M759.5 1581.5c0-43.63 35.369-79 79-79s79 35.37 79 79-35.37 79-79 79-79-35.37-79-79Z"/><text fill="#fff" font-family="Courier New,Courier New_MSFontService,sans-serif" font-size="83" font-weight="700" transform="translate(813.487 1605)">y</text><path fill="#d74514" fill-rule="evenodd" stroke="#d74514" stroke-miterlimit="8" stroke-width="9.167" d="M895.5 1885c0-43.35 35.369-78.5 79-78.5s79 35.15 79 78.5-35.37 78.5-79 78.5-79-35.15-79-78.5Z"/><text fill="#fff" font-family="Courier New,Courier New_MSFontService,sans-serif" font-size="83" font-weight="700" transform="translate(949.245 1908)">z</text><path fill="#fdefe8" fill-rule="evenodd" stroke="#d74514" stroke-miterlimit="8" stroke-width="9.167" d="M791.5 2211.5c0-43.63 35.37-79 79-79s79 35.37 79 79-35.37 79-79 79-79-35.37-79-79Z"/><text fill="#d74514" font-family="Courier New,Courier New_MSFontService,sans-serif" font-size="83" font-weight="700" transform="translate(845.135 2234)">C</text><path fill="#fdefe8" fill-rule="evenodd" stroke="#d74514" stroke-miterlimit="8" stroke-width="9.167" d="M982.5 2211.5c0-43.63 35.37-79 79-79s79 35.37 79 79-35.37 79-79 79-79-35.37-79-79Z"/><text fill="#d74514" font-family="Courier New,Courier New_MSFontService,sans-serif" font-size="83" font-weight="700" transform="translate(1036.12 2234)">D</text><path fill="none" stroke="#000" stroke-miterlimit="8" stroke-width="9.167" d="m379.5 1525.89 138.445-138.393m264.493 138.393L629.5 1387.5m52 418.38 102.026-168.381m190.887 168.381L895.5 1637.5m-25 494.49 47.962-191.494m142.468 191.494-31.43-191.49"/><path fill="#d74514" fill-rule="evenodd" stroke="#d74514" stroke-miterlimit="8" stroke-width="9.167" d="M1857.5 1331.5c0-43.63 35.37-79 79-79s79 35.37 79 79-35.37 79-79 79-79-35.37-79-79Z"/><text fill="#fff" font-family="Courier New,Courier New_MSFontService,sans-serif" font-size="83" font-weight="700" transform="translate(1911.61 1355)">y</text><path fill="#d74514" fill-rule="evenodd" stroke="#d74514" stroke-miterlimit="8" stroke-width="9.167" d="M1607.5 1581.5c0-43.63 35.37-79 79-79s79 35.37 79 79-35.37 79-79 79-79-35.37-79-79Z"/><text fill="#fff" font-family="Courier New,Courier New_MSFontService,sans-serif" font-size="83" font-weight="700" transform="translate(1661.57 1605)">x</text><path fill="#fdefe8" fill-rule="evenodd" stroke="#d74514" stroke-miterlimit="8" stroke-width="9.167" d="M1449.5 1884.5c0-43.63 35.37-79 79-79s79 35.37 79 79-35.37 79-79 79-79-35.37-79-79Z"/><text fill="#d74514" font-family="Courier New,Courier New_MSFontService,sans-serif" font-size="83" font-weight="700" transform="translate(1503.74 1908)">A</text><path fill="#d74514" fill-rule="evenodd" stroke="#d74514" stroke-miterlimit="8" stroke-width="9.167" d="M2122.5 1581.5c0-43.63 35.37-79 79-79s79 35.37 79 79-35.37 79-79 79-79-35.37-79-79Z"/><text fill="#fff" font-family="Courier New,Courier New_MSFontService,sans-serif" font-size="83" font-weight="700" transform="translate(2176.15 1605)">z</text><path fill="#fdefe8" fill-rule="evenodd" stroke="#d74514" stroke-miterlimit="8" stroke-width="9.167" d="M1742.5 1884.5c0-43.63 35.37-79 79-79s79 35.37 79 79-35.37 79-79 79-79-35.37-79-79Z"/><text fill="#d74514" font-family="Courier New,Courier New_MSFontService,sans-serif" font-size="83" font-weight="700" transform="translate(1796.28 1908)">B</text><path fill="none" stroke="#000" stroke-miterlimit="8" stroke-width="9.167" d="m1742.5 1525.89 138.445-138.393m264.495 138.393L1992.5 1387.5m-464 418.38 102.026-168.381m190.884 168.381-78.91-168.38"/><path fill="#fdefe8" fill-rule="evenodd" stroke="#d74514" stroke-miterlimit="8" stroke-width="9.167" d="M1968.5 1883.5c0-43.63 35.37-79 79-79s79 35.37 79 79-35.37 79-79 79-79-35.37-79-79Z"/><text fill="#d74514" font-family="Courier New,Courier New_MSFontService,sans-serif" font-size="83" font-weight="700" transform="translate(2022.29 1907)">C</text><path fill="#fdefe8" fill-rule="evenodd" stroke="#d74514" stroke-miterlimit="8" stroke-width="9.167" d="M2261.5 1883.5c0-43.63 35.15-79 78.5-79s78.5 35.37 78.5 79-35.15 79-78.5 79-78.5-35.37-78.5-79Z"/><text fill="#d74514" font-family="Courier New,Courier New_MSFontService,sans-serif" font-size="83" font-weight="700" transform="translate(2314.83 1907)">D</text><path fill="none" stroke="#000" stroke-miterlimit="8" stroke-width="9.167" d="m2047.5 1804.88 102.026-168.381m190.884 168.381-78.91-168.38"/><path fill="#d74514" fill-rule="evenodd" d="M1248 1692.5h90V1636l90 113-90 113v-56.5h-90Z"/></g></svg>

<svg width="2182" height="1062" xmlns="http://www.w3.org/2000/svg" xmlns:xlink="http://www.w3.org/1999/xlink" overflow="hidden"><defs><clipPath id="clip0"><rect x="241" y="1248" width="2182" height="1062"/></clipPath></defs><g clip-path="url(#clip0)" transform="translate(-241 -1248)"><path d="M495.5 1331.5C495.5 1287.87 530.646 1252.5 574 1252.5 617.354 1252.5 652.5 1287.87 652.5 1331.5 652.5 1375.13 617.354 1410.5 574 1410.5 530.646 1410.5 495.5 1375.13 495.5 1331.5Z" stroke="#D74514" stroke-width="9.16667" stroke-miterlimit="8" fill="#D74514" fill-rule="evenodd"/><text fill="#FFFFFF" font-family="Courier New,Courier New_MSFontService,sans-serif" font-weight="700" font-size="83" transform="matrix(1 0 0 1 548.948 1355)">x</text><path d="M245.5 1581.5C245.5 1537.87 280.646 1502.5 324 1502.5 367.354 1502.5 402.5 1537.87 402.5 1581.5 402.5 1625.13 367.354 1660.5 324 1660.5 280.646 1660.5 245.5 1625.13 245.5 1581.5Z" stroke="#D74514" stroke-width="9.16667" stroke-miterlimit="8" fill="#FDEFE8" fill-rule="evenodd"/><text fill="#D74514" font-family="Courier New,Courier New_MSFontService,sans-serif" font-weight="700" font-size="83" transform="matrix(1 0 0 1 298.904 1605)">A</text><path d="M602.5 1885C602.5 1841.65 637.87 1806.5 681.5 1806.5 725.13 1806.5 760.5 1841.65 760.5 1885 760.5 1928.35 725.13 1963.5 681.5 1963.5 637.87 1963.5 602.5 1928.35 602.5 1885Z" stroke="#D74514" stroke-width="9.16667" stroke-miterlimit="8" fill="#FDEFE8" fill-rule="evenodd"/><text fill="#D74514" font-family="Courier New,Courier New_MSFontService,sans-serif" font-weight="700" font-size="83" transform="matrix(1 0 0 1 656.706 1908)">B</text><path d="M759.5 1581.5C759.5 1537.87 794.869 1502.5 838.5 1502.5 882.13 1502.5 917.5 1537.87 917.5 1581.5 917.5 1625.13 882.13 1660.5 838.5 1660.5 794.869 1660.5 759.5 1625.13 759.5 1581.5Z" stroke="#D74514" stroke-width="9.16667" stroke-miterlimit="8" fill="#D74514" fill-rule="evenodd"/><text fill="#FFFFFF" font-family="Courier New,Courier New_MSFontService,sans-serif" font-weight="700" font-size="83" transform="matrix(1 0 0 1 813.487 1605)">y</text><path d="M895.5 1885C895.5 1841.65 930.869 1806.5 974.5 1806.5 1018.13 1806.5 1053.5 1841.65 1053.5 1885 1053.5 1928.35 1018.13 1963.5 974.5 1963.5 930.869 1963.5 895.5 1928.35 895.5 1885Z" stroke="#D74514" stroke-width="9.16667" stroke-miterlimit="8" fill="#D74514" fill-rule="evenodd"/><text fill="#FFFFFF" font-family="Courier New,Courier New_MSFontService,sans-serif" font-weight="700" font-size="83" transform="matrix(1 0 0 1 949.245 1908)">z</text><path d="M791.5 2211.5C791.5 2167.87 826.87 2132.5 870.5 2132.5 914.13 2132.5 949.5 2167.87 949.5 2211.5 949.5 2255.13 914.13 2290.5 870.5 2290.5 826.87 2290.5 791.5 2255.13 791.5 2211.5Z" stroke="#D74514" stroke-width="9.16667" stroke-miterlimit="8" fill="#FDEFE8" fill-rule="evenodd"/><text fill="#D74514" font-family="Courier New,Courier New_MSFontService,sans-serif" font-weight="700" font-size="83" transform="matrix(1 0 0 1 845.135 2234)">C</text><path d="M982.5 2211.5C982.5 2167.87 1017.87 2132.5 1061.5 2132.5 1105.13 2132.5 1140.5 2167.87 1140.5 2211.5 1140.5 2255.13 1105.13 2290.5 1061.5 2290.5 1017.87 2290.5 982.5 2255.13 982.5 2211.5Z" stroke="#D74514" stroke-width="9.16667" stroke-miterlimit="8" fill="#FDEFE8" fill-rule="evenodd"/><text fill="#D74514" font-family="Courier New,Courier New_MSFontService,sans-serif" font-weight="700" font-size="83" transform="matrix(1 0 0 1 1036.12 2234)">D</text><path d="M0 0 138.445 138.393" stroke="#000000" stroke-width="9.16667" stroke-miterlimit="8" fill="none" fill-rule="evenodd" transform="matrix(1 0 0 -1 379.5 1525.89)"/><path d="M782.438 1525.89 629.5 1387.5" stroke="#000000" stroke-width="9.16667" stroke-miterlimit="8" fill="none" fill-rule="evenodd"/><path d="M0 0 102.026 168.381" stroke="#000000" stroke-width="9.16667" stroke-miterlimit="8" fill="none" fill-rule="evenodd" transform="matrix(1 0 0 -1 681.5 1805.88)"/><path d="M974.413 1805.88 895.5 1637.5" stroke="#000000" stroke-width="9.16667" stroke-miterlimit="8" fill="none" fill-rule="evenodd"/><path d="M0 0 47.9619 191.494" stroke="#000000" stroke-width="9.16667" stroke-miterlimit="8" fill="none" fill-rule="evenodd" transform="matrix(1 0 0 -1 870.5 2131.99)"/><path d="M1060.93 2131.99 1029.5 1940.5" stroke="#000000" stroke-width="9.16667" stroke-miterlimit="8" fill="none" fill-rule="evenodd"/><path d="M1857.5 1331.5C1857.5 1287.87 1892.87 1252.5 1936.5 1252.5 1980.13 1252.5 2015.5 1287.87 2015.5 1331.5 2015.5 1375.13 1980.13 1410.5 1936.5 1410.5 1892.87 1410.5 1857.5 1375.13 1857.5 1331.5Z" stroke="#D74514" stroke-width="9.16667" stroke-miterlimit="8" fill="#D74514" fill-rule="evenodd"/><text fill="#FFFFFF" font-family="Courier New,Courier New_MSFontService,sans-serif" font-weight="700" font-size="83" transform="matrix(1 0 0 1 1911.61 1355)">y</text><path d="M1607.5 1581.5C1607.5 1537.87 1642.87 1502.5 1686.5 1502.5 1730.13 1502.5 1765.5 1537.87 1765.5 1581.5 1765.5 1625.13 1730.13 1660.5 1686.5 1660.5 1642.87 1660.5 1607.5 1625.13 1607.5 1581.5Z" stroke="#D74514" stroke-width="9.16667" stroke-miterlimit="8" fill="#D74514" fill-rule="evenodd"/><text fill="#FFFFFF" font-family="Courier New,Courier New_MSFontService,sans-serif" font-weight="700" font-size="83" transform="matrix(1 0 0 1 1661.57 1605)">x</text><path d="M1449.5 1884.5C1449.5 1840.87 1484.87 1805.5 1528.5 1805.5 1572.13 1805.5 1607.5 1840.87 1607.5 1884.5 1607.5 1928.13 1572.13 1963.5 1528.5 1963.5 1484.87 1963.5 1449.5 1928.13 1449.5 1884.5Z" stroke="#D74514" stroke-width="9.16667" stroke-miterlimit="8" fill="#FDEFE8" fill-rule="evenodd"/><text fill="#D74514" font-family="Courier New,Courier New_MSFontService,sans-serif" font-weight="700" font-size="83" transform="matrix(1 0 0 1 1503.74 1908)">A</text><path d="M2122.5 1581.5C2122.5 1537.87 2157.87 1502.5 2201.5 1502.5 2245.13 1502.5 2280.5 1537.87 2280.5 1581.5 2280.5 1625.13 2245.13 1660.5 2201.5 1660.5 2157.87 1660.5 2122.5 1625.13 2122.5 1581.5Z" stroke="#D74514" stroke-width="9.16667" stroke-miterlimit="8" fill="#D74514" fill-rule="evenodd"/><text fill="#FFFFFF" font-family="Courier New,Courier New_MSFontService,sans-serif" font-weight="700" font-size="83" transform="matrix(1 0 0 1 2176.15 1605)">z</text><path d="M1742.5 1884.5C1742.5 1840.87 1777.87 1805.5 1821.5 1805.5 1865.13 1805.5 1900.5 1840.87 1900.5 1884.5 1900.5 1928.13 1865.13 1963.5 1821.5 1963.5 1777.87 1963.5 1742.5 1928.13 1742.5 1884.5Z" stroke="#D74514" stroke-width="9.16667" stroke-miterlimit="8" fill="#FDEFE8" fill-rule="evenodd"/><text fill="#D74514" font-family="Courier New,Courier New_MSFontService,sans-serif" font-weight="700" font-size="83" transform="matrix(1 0 0 1 1796.28 1908)">B</text><path d="M0 0 138.445 138.393" stroke="#000000" stroke-width="9.16667" stroke-miterlimit="8" fill="none" fill-rule="evenodd" transform="matrix(1 0 0 -1 1742.5 1525.89)"/><path d="M2145.44 1525.89 1992.5 1387.5" stroke="#000000" stroke-width="9.16667" stroke-miterlimit="8" fill="none" fill-rule="evenodd"/><path d="M0 0 102.026 168.381" stroke="#000000" stroke-width="9.16667" stroke-miterlimit="8" fill="none" fill-rule="evenodd" transform="matrix(1 0 0 -1 1528.5 1805.88)"/><path d="M1821.41 1805.88 1742.5 1637.5" stroke="#000000" stroke-width="9.16667" stroke-miterlimit="8" fill="none" fill-rule="evenodd"/><path d="M1968.5 1883.5C1968.5 1839.87 2003.87 1804.5 2047.5 1804.5 2091.13 1804.5 2126.5 1839.87 2126.5 1883.5 2126.5 1927.13 2091.13 1962.5 2047.5 1962.5 2003.87 1962.5 1968.5 1927.13 1968.5 1883.5Z" stroke="#D74514" stroke-width="9.16667" stroke-miterlimit="8" fill="#FDEFE8" fill-rule="evenodd"/><text fill="#D74514" font-family="Courier New,Courier New_MSFontService,sans-serif" font-weight="700" font-size="83" transform="matrix(1 0 0 1 2022.29 1907)">C</text><path d="M2261.5 1883.5C2261.5 1839.87 2296.65 1804.5 2340 1804.5 2383.35 1804.5 2418.5 1839.87 2418.5 1883.5 2418.5 1927.13 2383.35 1962.5 2340 1962.5 2296.65 1962.5 2261.5 1927.13 2261.5 1883.5Z" stroke="#D74514" stroke-width="9.16667" stroke-miterlimit="8" fill="#FDEFE8" fill-rule="evenodd"/><text fill="#D74514" font-family="Courier New,Courier New_MSFontService,sans-serif" font-weight="700" font-size="83" transform="matrix(1 0 0 1 2314.83 1907)">D</text><path d="M0 0 102.026 168.381" stroke="#000000" stroke-width="9.16667" stroke-miterlimit="8" fill="none" fill-rule="evenodd" transform="matrix(1 0 0 -1 2047.5 1804.88)"/><path d="M2340.41 1804.88 2261.5 1636.5" stroke="#000000" stroke-width="9.16667" stroke-miterlimit="8" fill="none" fill-rule="evenodd"/><path d="M1248 1692.5 1338 1692.5 1338 1636 1428 1749 1338 1862 1338 1805.5 1248 1805.5Z" fill="#D74514" fill-rule="evenodd"/></g></svg>
